docs/assets/images/calc-svg/rounding-2.svg

<svg width="120" height="57" viewBox="0 0 120 57" fill="none" xmlns="http://www.w3.org/2000/svg">
<path d="M33 53.3333C51.6373 57.8007 62.2909 56.4361 78 48M33 53.3333L37.898 52.4444M33 53.3333L36.6735 56M78 48L72.4898 48.5926M78 48L74.9388 51.5556" stroke="#926A31"/>
<path d="M29.4792 48.2909L1 38.4884V34.058L75.6176 1L119 7.13447V9.8609V10.7201C119 11.0371 118.85 11.3354 118.595 11.5239L76.9851 42.3169C73.0864 45.2021 68.8208 47.6251 64.1419 48.9027C56.4708 50.9972 49.7748 51.4243 40.1235 50.62C36.491 50.3173 32.9259 49.4773 29.4792 48.2909Z" fill="#4F4F4F" fill-opacity="0.2"/>
<path d="M119 7.13447V9.8609V10.7201C119 11.0371 118.85 11.3354 118.595 11.5239L76.9851 42.3169C73.0864 45.2021 68.8208 47.6251 64.1419 48.9027C56.4708 50.9972 49.7748 51.4243 40.1235 50.62C36.491 50.3173 32.9259 49.4773 29.4792 48.2909L1 38.4884V34.058M119 7.13447L75.6176 1L1 34.058M119 7.13447L76.389 38.0619C72.8818 40.6075 69.0854 42.7773 64.9438 44.0531C55.8107 46.8665 48.6807 47.1026 38.1844 45.5334C35.8394 45.1828 33.5326 44.5969 31.2768 43.8662L1 34.058" stroke="#4F4F4F" stroke-opacity="0.6"/>
</svg>

<svg width="120" height="57" fill="none" xmlns="http://www.w3.org/2000/svg"><path d="M33 53.333C51.637 57.801 62.29 56.436 78 48m-45 5.333l4.898-.889m-4.898.89L36.673 56M78 48l-5.51.593M78 48l-3.061 3.556" stroke="#926A31"/><path d="M29.48 48.29L1 38.489v-4.43L75.618 1 119 7.134v3.587a1 1 0 01-.405.803l-41.61 30.793c-3.899 2.885-8.164 5.308-12.843 6.586-7.671 2.094-14.367 2.521-24.018 1.717-3.633-.303-7.198-1.143-10.645-2.33z" fill="#4F4F4F" fill-opacity=".2"/><path d="M119 7.134v3.587a1 1 0 01-.405.803l-41.61 30.793c-3.899 2.885-8.164 5.308-12.843 6.586-7.671 2.094-14.367 2.521-24.018 1.717-3.633-.303-7.198-1.143-10.645-2.33L1 38.489v-4.43M119 7.134L75.618 1 1 34.058M119 7.134L76.389 38.062c-3.507 2.546-7.304 4.715-11.445 5.991-9.133 2.814-16.263 3.05-26.76 1.48-2.345-.35-4.651-.936-6.907-1.667L1 34.058" stroke="#4F4F4F" stroke-opacity=".6"/></svg>
